X:187
%%pagewidth 8.5in
%%vocalfont Baskerville10Pro 14
T:Derry down (Watt's version)
M:6/8
L:1/8
K:G
%%score 1 2
V:1 clef-treble
V:2 clef-bass octave=-1
[V:1]B|(BA)G AGF & E6-|GFG E2B & E2x4|BAG AGF & E6-|
w:An an-*cient sto-ry I'll tell you a-non, Of~a no-ta-ble prince that was
[V:2]z|G3 cBA &E6-|BAB G2z &E3-E2x|G2x cBA &E6-|
[V:1]GFG E2D &E2x4|DED DED|DED [Fd]2[Ge]|
w:cal-led King John. He rul'd o-ver Eng-land with main and with might, For
[V:2]BAB G2[FA] &E3-E2x|[GB]3 [FA]3|[GB]3 [DA]2[Cc]|
[V:1]BAG AGF & E6-|GFG E2 ^D/D/ & E2x4|E3 G3|B>A[DG] (F<E) & ^D2x D2||
w:he did great wrong, and main-tain'd lit-tle right, Derry* down, down, hey derry* down.*
[V:2]G3 cBA & E6-|BAB G2x &E3-E2[FA]|[GB]3[EB]3|[B,FB]2[B,B] A<G &x3E2||

